svg/amazon.svg

<svg xmlns="http://www.w3.org/2000/svg" viewBox="0 0 62 64" enable-background="new 0 0 62 64"><style type="text/css">.st0{fill:#343434;}</style><path class="st0" d="M54.3 53c-26.3 12.2-42.7 2-53.1-4.2-.6-.4-1.7.1-.8 1.2 3.5 4.1 14.9 14 29.8 14s23.8-7.9 24.9-9.3c1.1-1.4.3-2.1-.8-1.7zM61.7 49.1c-.7-.9-4.3-1.1-6.6-.8-2.3.3-5.7 1.6-5.4 2.4.2.3.5.2 2 0 1.6-.2 5.9-.7 6.8.5.9 1.2-1.4 6.7-1.8 7.6-.4.9.2 1.1.9.5.8-.6 2.1-2.1 3-4.3 1.1-2.2 1.7-5.3 1.1-5.9zM36.3 18.5c-7 .2-24.3 2.2-24.3 16.6 0 15.5 19.9 16.2 26.4 6.1.3.4.5.8.9 1.2 2.4 2.5 5.6 5.4 5.6 5.4l8.1-7.8s-4.6-3.6-4.6-7.5v-20.8c0-3.6-3.5-11.7-16.2-11.7-12.6 0-19.3 7.8-19.3 14.8l10.5.9s2.4-7 7.8-7c5.5 0 5.1 4.4 5.1 5.3v4.5zm0 12.3c0 11.4-12.1 9.6-12.1 2.4 0-6.7 7.2-8 12.1-8.2v5.8z"/></svg>

<?xml version="1.0" encoding="utf-8"?>
<!-- Generator: Adobe Illustrator 21.0.0, SVG Export Plug-In . SVG Version: 6.00 Build 0)  -->
<svg version="1.1" id="Layer_1" xmlns="http://www.w3.org/2000/svg" xmlns:xlink="http://www.w3.org/1999/xlink" x="0px" y="0px"
	 viewBox="0 0 62 64" style="enable-background:new 0 0 62 64;" xml:space="preserve">
<style type="text/css">
	.st0{fill:#343434;}
</style>
<g>
	<path class="st0" d="M54.3,53C28,65.2,11.6,55,1.2,48.8c-0.6-0.4-1.7,0.1-0.8,1.2c3.5,4.1,14.9,14,29.8,14
		c14.9,0,23.8-7.9,24.9-9.3C56.2,53.3,55.4,52.6,54.3,53z"/>
	<path class="st0" d="M61.7,49.1c-0.7-0.9-4.3-1.1-6.6-0.8c-2.3,0.3-5.7,1.6-5.4,2.4c0.2,0.3,0.5,0.2,2,0c1.6-0.2,5.9-0.7,6.8,0.5
		c0.9,1.2-1.4,6.7-1.8,7.6c-0.4,0.9,0.2,1.1,0.9,0.5c0.8-0.6,2.1-2.1,3-4.3C61.7,52.8,62.3,49.7,61.7,49.1z"/>
	<path class="st0" d="M36.3,18.5c-7,0.2-24.3,2.2-24.3,16.6c0,15.5,19.9,16.2,26.4,6.1c0.3,0.4,0.5,0.8,0.9,1.2
		c2.4,2.5,5.6,5.4,5.6,5.4L53,40c0,0-4.6-3.6-4.6-7.5V11.7C48.4,8.1,44.9,0,32.2,0C19.6,0,12.9,7.8,12.9,14.8l10.5,0.9
		c0,0,2.4-7,7.8-7c5.5,0,5.1,4.4,5.1,5.3V18.5z M36.3,30.8c0,11.4-12.1,9.6-12.1,2.4c0-6.7,7.2-8,12.1-8.2V30.8z"/>
</g>
</svg>
